src/assets/instagram.svg

<svg width="24" height="24" viewBox="0 0 24 24" fill="none" xmlns="http://www.w3.org/2000/svg">
<g clip-path="url(#clip0_8_182)">
<path d="M12 0C8.7435 0 8.334 0.015 7.0545 0.072C5.775 0.132 4.9035 0.333 4.14 0.63C3.33914 0.931229 2.61374 1.40374 2.0145 2.0145C1.40411 2.61404 0.931661 3.33936 0.63 4.14C0.333 4.902 0.1305 5.775 0.072 7.05C0.015 8.3325 0 8.7405 0 12.0015C0 15.2595 0.015 15.6675 0.072 16.947C0.132 18.225 0.333 19.0965 0.63 19.86C0.9375 20.649 1.347 21.318 2.0145 21.9855C2.6805 22.653 3.3495 23.064 4.1385 23.37C4.9035 23.667 5.7735 23.8695 7.0515 23.928C8.3325 23.985 8.7405 24 12 24C15.2595 24 15.666 23.985 16.947 23.928C18.2235 23.868 19.098 23.667 19.8615 23.37C20.6618 23.0686 21.3867 22.5961 21.9855 21.9855C22.653 21.318 23.0625 20.649 23.37 19.86C23.6655 19.0965 23.868 18.225 23.928 16.947C23.985 15.6675 24 15.2595 24 12C24 8.7405 23.985 8.3325 23.928 7.0515C23.868 5.775 23.6655 4.902 23.37 4.14C23.0684 3.33934 22.5959 2.61401 21.9855 2.0145C21.3864 1.40351 20.661 0.930968 19.86 0.63C19.095 0.333 18.222 0.1305 16.9455 0.072C15.6645 0.015 15.258 0 11.997 0H12.0015H12ZM10.9245 2.163H12.0015C15.2055 2.163 15.585 2.1735 16.8495 2.232C18.0195 2.2845 18.6555 2.481 19.0785 2.6445C19.638 2.862 20.0385 3.123 20.4585 3.543C20.8785 3.963 21.138 4.362 21.3555 4.923C21.5205 5.3445 21.7155 5.9805 21.768 7.1505C21.8265 8.415 21.8385 8.7945 21.8385 11.997C21.8385 15.1995 21.8265 15.5805 21.768 16.845C21.7155 18.015 21.519 18.6495 21.3555 19.0725C21.1631 19.5935 20.856 20.0647 20.457 20.451C20.037 20.871 19.638 21.1305 19.077 21.348C18.657 21.513 18.021 21.708 16.8495 21.762C15.585 21.819 15.2055 21.8325 12.0015 21.8325C8.7975 21.8325 8.4165 21.819 7.152 21.762C5.982 21.708 5.3475 21.513 4.9245 21.348C4.40325 21.1559 3.93169 20.8494 3.5445 20.451C3.14513 20.0641 2.83758 19.5925 2.6445 19.071C2.481 18.6495 2.2845 18.0135 2.232 16.8435C2.175 15.579 2.163 15.1995 2.163 11.994C2.163 8.79 2.175 8.412 2.232 7.1475C2.286 5.9775 2.481 5.3415 2.646 4.9185C2.8635 4.359 3.1245 3.9585 3.5445 3.5385C3.9645 3.1185 4.3635 2.859 4.9245 2.6415C5.3475 2.4765 5.982 2.2815 7.152 2.2275C8.259 2.1765 8.688 2.1615 10.9245 2.16V2.163ZM18.4065 4.155C18.2174 4.155 18.0301 4.19225 17.8554 4.26461C17.6807 4.33698 17.522 4.44305 17.3883 4.57677C17.2545 4.71048 17.1485 4.86923 17.0761 5.04394C17.0037 5.21864 16.9665 5.4059 16.9665 5.595C16.9665 5.7841 17.0037 5.97135 17.0761 6.14606C17.1485 6.32077 17.2545 6.47952 17.3883 6.61323C17.522 6.74695 17.6807 6.85302 17.8554 6.92539C18.0301 6.99775 18.2174 7.035 18.4065 7.035C18.7884 7.035 19.1547 6.88329 19.4247 6.61323C19.6948 6.34318 19.8465 5.97691 19.8465 5.595C19.8465 5.21309 19.6948 4.84682 19.4247 4.57677C19.1547 4.30671 18.7884 4.155 18.4065 4.155ZM12.0015 5.838C11.1841 5.82525 10.3723 5.97523 9.61347 6.27921C8.85459 6.58319 8.16377 7.03511 7.58123 7.60863C6.99868 8.18216 6.53605 8.86585 6.22026 9.61989C5.90448 10.3739 5.74185 11.1833 5.74185 12.0007C5.74185 12.8182 5.90448 13.6276 6.22026 14.3816C6.53605 15.1356 6.99868 15.8193 7.58123 16.3929C8.16377 16.9664 8.85459 17.4183 9.61347 17.7223C10.3723 18.0263 11.1841 18.1763 12.0015 18.1635C13.6193 18.1383 15.1623 17.4779 16.2975 16.3249C17.4326 15.1719 18.0689 13.6188 18.0689 12.0007C18.0689 10.3827 17.4326 8.82962 16.2975 7.67662C15.1623 6.52363 13.6193 5.86324 12.0015 5.838ZM12.0015 7.9995C13.0625 7.9995 14.08 8.42098 14.8303 9.17122C15.5805 9.92146 16.002 10.939 16.002 12C16.002 13.061 15.5805 14.0785 14.8303 14.8288C14.08 15.579 13.0625 16.0005 12.0015 16.0005C10.9405 16.0005 9.92296 15.579 9.17272 14.8288C8.42248 14.0785 8.001 13.061 8.001 12C8.001 10.939 8.42248 9.92146 9.17272 9.17122C9.92296 8.42098 10.9405 7.9995 12.0015 7.9995Z" fill="#F6F6F6"/>
</g>
<defs>
<clipPath id="clip0_8_182">
<rect width="24" height="24" fill="white"/>
</clipPath>
</defs>
</svg>

<svg xmlns="http://www.w3.org/2000/svg" width="24" height="24" fill="none" viewBox="0 0 24 24"><g clip-path="url(#a)"><path fill="#f6f6f6" d="M12 0C8.743 0 8.334.015 7.055.072 5.775.132 4.904.333 4.14.63c-.8.301-1.526.774-2.125 1.385A5.9 5.9 0 0 0 .63 4.14c-.297.762-.5 1.635-.558 2.91C.015 8.332 0 8.74 0 12.002c0 3.257.015 3.665.072 4.945.06 1.278.261 2.15.558 2.913a5.9 5.9 0 0 0 1.385 2.125 5.86 5.86 0 0 0 2.123 1.385c.766.297 1.636.5 2.914.558C8.332 23.985 8.74 24 12 24s3.666-.015 4.947-.072c1.277-.06 2.151-.261 2.915-.558a5.9 5.9 0 0 0 2.124-1.385 5.9 5.9 0 0 0 1.384-2.125c.296-.764.498-1.635.558-2.913.057-1.28.072-1.687.072-4.947s-.015-3.668-.072-4.948c-.06-1.277-.262-2.15-.558-2.912a5.9 5.9 0 0 0-1.385-2.125A5.9 5.9 0 0 0 19.86.63c-.765-.297-1.638-.5-2.915-.558C15.666.015 15.259 0 11.997 0h.005zm-1.075 2.163H12c3.205 0 3.584.01 4.849.069 1.17.052 1.805.249 2.228.412.56.218.96.479 1.38.899s.68.819.898 1.38c.164.422.36 1.058.412 2.228.058 1.264.07 1.643.07 4.846s-.012 3.584-.07 4.848c-.053 1.17-.249 1.805-.413 2.228-.192.52-.499.992-.898 1.378-.42.42-.819.68-1.38.897-.42.165-1.056.36-2.228.414-1.264.057-1.643.07-4.847.07s-3.586-.013-4.85-.07c-1.17-.054-1.804-.249-2.227-.414a3.7 3.7 0 0 1-1.38-.897 3.7 3.7 0 0 1-.9-1.38c-.164-.422-.36-1.058-.413-2.228-.057-1.264-.069-1.643-.069-4.849 0-3.204.012-3.582.069-4.846.054-1.17.249-1.806.414-2.23.218-.559.478-.96.899-1.38.42-.42.819-.679 1.38-.896.423-.165 1.057-.36 2.227-.414 1.107-.052 1.536-.066 3.773-.068zm7.482 1.992a1.44 1.44 0 1 0 0 2.88 1.44 1.44 0 0 0 0-2.88m-6.405 1.683a6.163 6.163 0 1 0-.193 12.325 6.163 6.163 0 0 0 .193-12.325m0 2.162a4 4 0 1 1 0 8 4 4 0 0 1 0-8"/></g><defs><clipPath id="a"><path fill="#fff" d="M0 0h24v24H0z"/></clipPath></defs></svg>
